src/icons/deployment-success.svg

<svg fill="#3ada7d" xmlns="http://www.w3.org/2000/svg"  viewBox="0 0 26 26" width="32px" height="32px"><path d="M 5 0 C 4.445313 0 4 0.449219 4 1 L 4 14 C 4 14.550781 4.445313 15 5 15 L 23 15 C 23.554688 15 24 14.550781 24 14 L 24 1 C 24 0.449219 23.554688 0 23 0 Z M 11 2 L 17 2 C 17.554688 2 18 2.449219 18 3 C 18 3.550781 17.554688 4 17 4 L 11 4 C 10.445313 4 10 3.550781 10 3 C 10 2.449219 10.445313 2 11 2 Z M 5 16 C 2.25 16 0 18.25 0 21 C 0 23.75 2.25 26 5 26 L 26 26 L 26 24 L 5 24 C 3.332031 24 2 22.667969 2 21 C 2 19.332031 3.332031 18 5 18 L 26 18 L 26 16 Z M 5 19 C 3.894531 19 3 19.894531 3 21 C 3 22.105469 3.894531 23 5 23 C 6.105469 23 7 22.105469 7 21 C 7 19.894531 6.105469 19 5 19 Z M 14 19 C 12.894531 19 12 19.894531 12 21 C 12 22.105469 12.894531 23 14 23 C 15.105469 23 16 22.105469 16 21 C 16 19.894531 15.105469 19 14 19 Z M 23 19 C 21.894531 19 21 19.894531 21 21 C 21 22.105469 21.894531 23 23 23 C 24.105469 23 25 22.105469 25 21 C 25 19.894531 24.105469 19 23 19 Z"/></svg>

<svg role="img" viewBox="0 0 26 26" fill="#3ada7d" xmlns="http://www.w3.org/2000/svg"><path d="M5 0a1 1 0 0 0-1 1v13a1 1 0 0 0 1 1h18a1 1 0 0 0 1-1V1a1 1 0 0 0-1-1Zm6 2h6a1 1 0 1 1 0 2h-6a1 1 0 1 1 0-2M5 16c-2.75 0-5 2.25-5 5s2.25 5 5 5h21v-2H5c-1.668 0-3-1.332-3-3s1.332-3 3-3h21v-2Zm0 3a1.999 1.999 0 1 0 0 4 1.999 1.999 0 1 0 0-4m9 0a1.999 1.999 0 1 0 0 4 1.999 1.999 0 1 0 0-4m9 0a1.999 1.999 0 1 0 0 4 1.999 1.999 0 1 0 0-4"/></svg>
